assets/icons/linkedin.svg

<?xml version="1.0" encoding="UTF-8"?>
<svg width="24px" height="24px" viewBox="0 0 24 24" version="1.1" xmlns="http://www.w3.org/2000/svg" xmlns:xlink="http://www.w3.org/1999/xlink">
    <!-- Generator: Sketch 53.2 (72643) - https://sketchapp.com -->
    <title>Icon/Social/LinkedIn</title>
    <desc>Created with Sketch.</desc>
    <g id="Icon/Social/LinkedIn" stroke="none" stroke-width="1" fill="none" fill-rule="evenodd">
        <path d="M10.4858333,16.7763669 L12.5005,16.7763669 L12.5005,13.5664003 C12.5005,12.7197425 12.6606667,11.8994177 13.7103333,11.8994177 C14.7455,11.8994177 14.7585,12.8675743 14.7585,13.6202331 L14.7585,16.7763669 L16.7753333,16.7763669 L16.7753333,13.2170707 C16.7753333,11.4690889 16.398,10.1252695 14.3555,10.1252695 C13.3741667,10.1252695 12.716,10.6632639 12.4471667,11.1735919 L12.4195,11.1735919 L12.4195,10.2862679 L10.4858333,10.2862679 L10.4858333,16.7763669 Z M8.2115,7.06013479 C7.56366667,7.06013479 7.04116667,7.58412933 7.04116667,8.22978927 C7.04116667,8.87544921 7.56366667,9.39961042 8.2115,9.39961042 C8.85666667,9.39961042 9.3805,8.87544921 9.3805,8.22978927 C9.3805,7.58412933 8.85666667,7.06013479 8.2115,7.06013479 L8.2115,7.06013479 Z M7.20133333,16.7763669 L9.22033333,16.7763669 L9.22033333,10.2862679 L7.20133333,10.2862679 L7.20133333,16.7763669 Z M4.88316667,20 C4.39516667,20 4,19.6045041 4,19.1168425 L4,4.88315747 C4,4.39532922 4.39516667,4 4.88316667,4 L19.117,4 C19.6046667,4 20,4.39532922 20,4.88315747 L20,19.1168425 C20,19.6045041 19.6046667,20 19.117,20 L4.88316667,20 Z" id="Shape" fill="#000000"></path>
    </g>
</svg>

<svg class="ucla-icon linkedin" width="24" height="24" viewBox="0 0 24 24" aria-labelledby="icon-linkedin" role="img"><title id="icon-linkedin">Icon Social LinkedIn</title><g fill="none" fill-rule="evenodd"><path d="M10.486 16.776H12.5v-3.21c0-.846.16-1.667 1.21-1.667 1.035 0 1.048.969 1.048 1.721v3.156h2.017v-3.559c0-1.748-.377-3.092-2.42-3.092-.98 0-1.639.538-1.908 1.049h-.027v-.888h-1.934v6.49zM8.21 7.06A1.17 1.17 0 1 0 8.21 9.4a1.17 1.17 0 0 0 .002-2.339zm-1.01 9.716h2.02v-6.49H7.2v6.49zM4.883 20A.883.883 0 0 1 4 19.117V4.883C4 4.395 4.395 4 4.883 4h14.234c.488 0 .883.395.883.883v14.234a.883.883 0 0 1-.883.883H4.883z" id="Shape" fill="#000"/></g></svg>
